logos/sendgrid.svg

<?xml version="1.0" encoding="UTF-8"?>
<svg width="512px" height="90px" viewBox="0 0 512 90" version="1.1" xmlns="http://www.w3.org/2000/svg" xmlns:xlink="http://www.w3.org/1999/xlink" preserveAspectRatio="xMidYMid">
    <g>
        <path d="M177.11377,57.2944944 C179.242871,52.5282692 183.704839,49.283328 189.587603,49.283328 C195.470367,49.283328 199.831149,52.0209419 201.656691,57.2944944 L177.11377,57.2944944 Z M215.651807,63.3796314 C215.651807,48.7753029 205.00212,37.1130543 189.486417,37.1130543 C174.882088,37.1130543 163.117956,48.8764892 163.117956,63.4815156 C163.117956,78.0851463 174.0719,89.8492791 189.892558,89.8492791 C200.849294,89.8492791 208.729965,84.5638629 213.16402,76.9874488 L202.143781,70.4159199 C199.806027,74.9016148 195.318239,77.6797032 189.993744,77.6797032 C182.69158,77.6797032 178.128425,74.0279232 176.505257,68.4501135 L215.651807,68.4501135 L215.651807,63.3796314 Z M498.51158,63.3796314 C498.51158,55.8750945 493.034957,49.7899575 485.531115,49.7899575 C477.823509,49.7899575 471.940745,55.5708377 471.940745,63.3796314 C471.940745,71.1884252 477.823509,77.0711892 485.531115,77.0711892 C493.034957,77.0711892 498.51158,70.8848662 498.51158,63.3796314 L498.51158,63.3796314 Z M458.351072,63.4815156 C458.351072,45.5317574 471.535302,37.1130543 482.995177,37.1130543 C489.586946,37.1130543 494.759312,39.5471092 498.106137,43.0963072 L498.106137,14.8018165 L512.000066,14.8018165 L512.000066,88.8346241 L498.106137,88.8346241 L498.106137,83.1563262 C494.759312,87.1116652 489.384573,89.8492791 482.792804,89.8492791 C472.041931,89.8492791 458.351072,81.3300875 458.351072,63.4815156 L458.351072,63.4815156 Z M448.144509,30.4096343 C452.734882,30.4096343 456.455748,26.6887685 456.455748,22.0983977 C456.455748,17.5080273 452.734882,13.7871615 448.144509,13.7871615 C443.554837,13.7871615 439.834669,17.5080273 439.834669,22.0983977 C439.834669,26.6887685 443.554837,30.4096343 448.144509,30.4096343 L448.144509,30.4096343 Z M441.198242,38.1277089 L455.091477,38.1277089 L455.091477,88.8346241 L441.198242,88.8346241 L441.198242,51.6161966 L436.155674,51.6154987 L441.198242,38.1277089 Z M404.185676,38.1277089 L417.978422,38.1277089 L417.978422,46.4438303 C420.513663,41.1702774 425.077516,38.1277089 431.973538,38.1277089 L437.552045,38.1277089 L432.514362,51.6154987 L428.7279,51.6154987 C421.325247,51.6154987 418.079609,55.4696514 418.079609,64.9009155 L418.079609,88.8346241 L404.185676,88.8346241 L404.185676,38.1277089 Z M326.023071,51.8185692 C326.023071,30.7236608 341.945613,13.7871615 363.850709,13.7871615 C374.808145,13.7871615 384.022381,17.7327308 390.693701,24.0202404 C393.408983,26.5785103 395.702075,29.5254748 397.520637,32.7522722 L385.14869,40.2568091 C380.584838,31.8388039 373.586931,27.4780218 363.952593,27.4780218 C350.464107,27.4780218 340.018188,38.5331524 340.018188,51.8185692 C340.018188,65.4082428 350.261734,76.1577209 364.459223,76.1577209 C375.210099,76.1577209 382.815124,70.0732821 385.452249,60.6413197 L362.228239,60.6413197 L362.228239,47.1535303 L400.664392,47.1535303 L400.664392,52.832526 C400.664392,72.7104071 386.466903,89.8492791 364.459223,89.8492791 C341.3371,89.8492791 326.023071,72.304964 326.023071,51.8185692 L326.023071,51.8185692 Z M309.274988,63.3796314 C309.274988,55.8750945 303.799063,49.7899575 296.294526,49.7899575 C288.586918,49.7899575 282.704154,55.5708377 282.704154,63.3796314 C282.704154,71.1884252 288.586918,77.0711892 296.294526,77.0711892 C303.799063,77.0711892 309.274988,70.8848662 309.274988,63.3796314 L309.274988,63.3796314 Z M269.11448,63.4815156 C269.11448,45.5317574 282.298013,37.1130543 293.758587,37.1130543 C300.350353,37.1130543 305.522719,39.5471092 308.869545,43.0963072 L308.869545,14.8018165 L322.763475,14.8018165 L322.763475,88.8346241 L308.869545,88.8346241 L308.869545,83.1563262 C305.522719,87.1116652 300.14798,89.8492791 293.556214,89.8492791 C282.806038,89.8492791 269.11448,81.3300875 269.11448,63.4815156 L269.11448,63.4815156 Z M218.89954,38.1277089 L232.692982,38.1277089 L232.692982,43.806705 C235.937923,39.6482955 240.907917,37.1130543 246.688099,37.1130543 C258.654604,37.1130543 265.855582,44.8206617 265.855582,57.9030084 L265.855582,88.8346241 L251.758581,88.8346241 L251.758581,59.7285493 C251.758581,52.9337123 248.614827,48.9783734 242.429201,48.9783734 C237.154951,48.9783734 232.794169,52.6294555 232.794169,61.1479492 L232.794169,88.8346241 L218.89954,88.8346241 L218.89954,38.1277089 Z M105.457097,76.5638619 L118.337768,66.4215021 C121.988153,72.7104071 127.769033,76.3607914 134.360101,76.3607914 C141.561777,76.3607914 145.41593,71.6964503 145.41593,66.6245726 C145.41593,60.5401334 138.011183,58.614104 130.101203,56.1786535 C120.163309,53.1367828 109.108179,49.283328 109.108179,35.0844429 C109.108179,23.2191239 119.45361,13.7871615 133.752285,13.7871615 C145.821373,13.7871615 152.717396,18.3510141 158.701347,24.5380353 L147.037702,33.3607858 C143.995832,28.7976311 139.63505,26.3628784 133.853472,26.3628784 C127.261705,26.3628784 123.713205,29.9127742 123.713205,34.5778134 C123.713205,40.2568091 130.811601,42.1849324 138.721581,44.8206617 C148.762755,48.0656029 160.120747,52.5282692 160.120747,66.7271546 C160.120747,78.4905895 150.789971,89.8492791 134.461985,89.8492791 C121.07608,89.8492791 112.151445,84.1709809 105.457097,76.5638619 L105.457097,76.5638619 Z" fill="#212F38"></path>
        <g>
            <path d="M88.83602,0 L88.83602,59.2240133 L59.2240132,59.2240133 L59.2240132,88.8346241 L0.000697836735,88.8346241 L0,29.6113087 L29.6120066,29.6113087 L29.6120066,0 L88.83602,0 Z" fill="#9DD6E3"></path>
            <polygon fill="#3F72AB" points="0.000697836735 88.8346241 29.6127045 88.8346241 29.6127045 59.2226177 0.000697836735 59.2226177"></polygon>
            <polygon fill="#00A9D1" points="59.2240132 59.2240133 88.83602 59.2240133 88.83602 29.6113087 59.2240132 29.6113087"></polygon>
            <polygon fill="#00A9D1" points="29.6120066 29.6120065 59.2240132 29.6120065 59.2240132 0 29.6120066 0"></polygon>
            <polygon fill="#2191C4" points="29.6120066 59.2233155 59.2240132 59.2233155 59.2240132 29.6113087 29.6120066 29.6113087"></polygon>
            <polygon fill="#3F72AB" points="59.2240132 29.6120065 88.83602 29.6120065 88.83602 0 59.2240132 0"></polygon>
        </g>
    </g>
</svg>

<svg preserveAspectRatio="xMidYMid" viewBox="0 0 512 90" xmlns="http://www.w3.org/2000/svg">
  <path fill="#212F38" d="M177.114 57.294c2.129-4.766 6.59-8.01 12.474-8.01 5.882 0 10.243 2.737 12.069 8.01h-24.543Zm38.538 6.086c0-14.605-10.65-26.267-26.166-26.267a26.315 26.315 0 0 0-26.368 26.369c0 14.603 10.954 26.367 26.775 26.367 10.956 0 18.837-5.285 23.271-12.862l-11.02-6.571c-2.338 4.486-6.826 7.264-12.15 7.264-7.302 0-11.866-3.652-13.489-9.23h39.147v-5.07Zm282.86 0c0-7.505-5.477-13.59-12.98-13.59-7.708 0-13.591 5.78-13.591 13.59 0 7.808 5.883 13.691 13.59 13.691 7.504 0 12.98-6.186 12.98-13.691Zm-40.16.102c0-17.95 13.183-26.369 24.643-26.369 6.592 0 11.764 2.434 15.111 5.983V14.802H512v74.033h-13.894v-5.679c-3.347 3.956-8.721 6.693-15.313 6.693-10.751 0-24.442-8.519-24.442-26.367ZM448.144 30.41a8.31 8.31 0 0 0 8.31-8.312 8.311 8.311 0 1 0-16.62 0 8.31 8.31 0 0 0 8.31 8.312Zm-6.947 7.718h13.893v50.707h-13.893V51.616h-5.042l5.042-13.488Zm-37.012 0h13.792v8.316c2.536-5.274 7.1-8.316 13.996-8.316h5.578l-5.038 13.487h-3.786c-7.403 0-10.648 3.855-10.648 13.286v23.934h-13.894V38.128Zm-78.163 13.69c0-21.094 15.923-38.03 37.828-38.03 10.957 0 20.171 3.945 26.843 10.232a36.832 36.832 0 0 1 6.827 8.732l-12.372 7.505c-4.564-8.418-11.562-12.779-21.196-12.779-13.489 0-23.935 11.055-23.935 24.34 0 13.59 10.244 24.34 24.441 24.34 10.751 0 18.356-6.085 20.993-15.517h-23.224V47.154h38.436v5.679c0 19.877-14.197 37.016-36.205 37.016-23.122 0-38.436-17.544-38.436-38.03ZM309.275 63.38c0-7.505-5.476-13.59-12.98-13.59-7.708 0-13.59 5.78-13.59 13.59 0 7.808 5.882 13.691 13.59 13.691 7.504 0 12.98-6.186 12.98-13.691Zm-40.16.102c0-17.95 13.183-26.369 24.644-26.369 6.591 0 11.764 2.434 15.11 5.983V14.802h13.894v74.033H308.87v-5.679c-3.347 3.956-8.722 6.693-15.314 6.693-10.75 0-24.442-8.519-24.442-26.367ZM218.9 38.128h13.793v5.679c3.245-4.159 8.215-6.694 13.995-6.694 11.967 0 19.168 7.708 19.168 20.79v30.932h-14.097V59.729c0-6.795-3.144-10.75-9.33-10.75-5.274 0-9.635 3.65-9.635 12.169v27.687H218.9V38.128ZM105.457 76.564l12.88-10.142c3.651 6.288 9.432 9.939 16.023 9.939 7.202 0 11.056-4.665 11.056-9.736 0-6.085-7.405-8.01-15.315-10.446-9.938-3.042-20.993-6.896-20.993-21.095 0-11.865 10.346-21.297 24.644-21.297 12.07 0 18.965 4.564 24.95 10.751l-11.664 8.823c-3.042-4.563-7.403-6.998-13.185-6.998-6.591 0-10.14 3.55-10.14 8.215 0 5.679 7.099 7.607 15.009 10.243 10.04 3.245 21.399 7.707 21.399 21.906 0 11.764-9.331 23.122-25.659 23.122-13.386 0-22.31-5.678-29.005-13.285Z"/>
  <path fill="#9DD6E3" d="M88.836 0v59.224H59.224v29.61H.001L0 29.612h29.612V0h59.224Z"/>
  <path fill="#3F72AB" d="M0 88.835h29.613V59.223H0z"/>
  <path fill="#00A9D1" d="M59.224 59.224h29.612V29.611H59.224z"/>
  <path fill="#00A9D1" d="M29.612 29.612h29.612V0H29.612z"/>
  <path fill="#2191C4" d="M29.612 59.223h29.612V29.611H29.612z"/>
  <path fill="#3F72AB" d="M59.224 29.612h29.612V0H59.224z"/>
</svg>
